illustrations/assets/Bluetooth permissons error/il_axis_bluetooth_permissons_error_dark.svg

<svg xmlns="http://www.w3.org/2000/svg" width="231" height="160" fill="none" viewBox="0 0 231 160">
  <path fill="#242424" d="M116.413 144.8c34.312 0 62.13-27.801 62.13-62.2152 0-34.4143-27.94-62.2152-62.13-62.2152-34.3123 0-62.1298 27.8009-62.1298 62.2152 0 34.4142 27.8175 62.2152 62.1298 62.2152Z"/>
  <path fill="#5C5C5C" d="M174.499 41.8021c2.775 0 5.024-2.2481 5.024-5.0213s-2.249-5.0213-5.024-5.0213-5.024 2.2481-5.024 5.0213 2.249 5.0213 5.024 5.0213ZM181.852 22.2066c1.895 0 3.431-1.5353 3.431-3.4292 0-1.8938-1.536-3.4291-3.431-3.4291s-3.431 1.5353-3.431 3.4291c0 1.8939 1.536 3.4292 3.431 3.4292ZM57.5924 41.6795c1.895 0 3.4312-1.5353 3.4312-3.4291 0-1.8939-1.5362-3.4292-3.4312-3.4292-1.8951 0-3.4313 1.5353-3.4313 3.4292 0 1.8938 1.5362 3.4291 3.4313 3.4291ZM36.6365 107.814c3.5193 0 6.3722-2.852 6.3722-6.369 0-3.5172-2.8529-6.3685-6.3722-6.3685-3.5194 0-6.3723 2.8513-6.3723 6.3685 0 3.517 2.8529 6.369 6.3723 6.369Z"/>
  <mask id="mask0_3869_1833" width="125" height="137" x="54" y="8" maskUnits="userSpaceOnUse" style="mask-type:alpha">
    <path fill="#D9D9D9" d="M170.241 8H64.7776v40.2513c-6.5099 9.834-10.301 21.6334-10.301 34.3335 0 34.4142 27.8375 62.2152 62.1744 62.2152 34.337 0 62.175-27.801 62.175-62.2152 0-11.5196-3.133-22.2981-8.585-31.5411V8Z"/>
  </mask>
  <g mask="url(#mask0_3869_1833)">
    <path fill="url(#paint0_linear_3869_1833)" d="M69.0915 147.616 67.9878 18.2759c0-3.0334 2.4833-5.3773 5.5185-5.3773h86.6407c3.036 0 5.519 2.4818 5.519 5.3773V142.239c0 3.033-2.483 5.377-5.519 5.377H69.0915Z"/>
  </g>
  <ellipse cx="116.551" cy="82.3245" fill="#3A3A3A" rx="38.8291" ry="46.3181"/>
  <path stroke="#F5F2EC" stroke-linecap="round" stroke-linejoin="round" stroke-width="3.6" d="m101.451 64.9413 30.201 30.6631-14.505 14.7266v-57.09l14.505 14.7263-30.201 30.6631"/>
  <path fill="url(#paint1_linear_3869_1833)" d="m153.134 85.6653-22.396 35.6517c-2.704 4.305.394 9.898 5.482 9.898h44.792c5.088 0 8.186-5.593 5.482-9.898l-22.396-35.6517c-2.536-4.0378-8.427-4.0378-10.964 0Z"/>
  <path fill="#242424" d="M158.274 98.4818c-1.571 0-2.82 1.3201-2.732 2.8882l.679 12.123c.061 1.089.962 1.94 2.053 1.94 1.09 0 1.991-.851 2.052-1.94l.679-12.123c.088-1.5681-1.161-2.8882-2.731-2.8882Zm-.009 25.0412c1.468 0 2.615-1.186 2.615-2.672 0-1.487-1.147-2.653-2.615-2.653-1.451 0-2.597 1.166-2.597 2.653 0 1.486 1.146 2.672 2.597 2.672Z"/>
  <defs>
    <linearGradient id="paint0_linear_3869_1833" x1="116.859" x2="116.859" y1="150.733" y2="11.4462" gradientUnits="userSpaceOnUse">
      <stop stop-color="#5C5C5C"/>
      <stop offset=".9964" stop-color="#4D4D4D"/>
    </linearGradient>
    <linearGradient id="paint1_linear_3869_1833" x1="136.505" x2="180.669" y1="143.184" y2="98.9624" gradientUnits="userSpaceOnUse">
      <stop stop-color="#FAFAFA"/>
      <stop offset=".8281" stop-color="#F5F2EC"/>
    </linearGradient>
  </defs>
</svg>

<svg width="231" height="160" viewBox="0 0 231 160" fill="none" xmlns="http://www.w3.org/2000/svg">
<path d="M116.413 144.8C150.725 144.8 178.543 116.999 178.543 82.5848C178.543 48.1705 150.603 20.3696 116.413 20.3696C82.1007 20.3696 54.2832 48.1705 54.2832 82.5848C54.2832 116.999 82.1007 144.8 116.413 144.8Z" fill="#242424"/>
<path d="M174.499 41.8021C177.274 41.8021 179.523 39.554 179.523 36.7808C179.523 34.0076 177.274 31.7595 174.499 31.7595C171.724 31.7595 169.475 34.0076 169.475 36.7808C169.475 39.554 171.724 41.8021 174.499 41.8021Z" fill="#5C5C5C"/>
<path d="M181.852 22.2068C183.747 22.2068 185.283 20.6715 185.283 18.7776C185.283 16.8837 183.747 15.3484 181.852 15.3484C179.957 15.3484 178.421 16.8837 178.421 18.7776C178.421 20.6715 179.957 22.2068 181.852 22.2068Z" fill="#5C5C5C"/>
<path d="M57.5924 41.6794C59.4874 41.6794 61.0236 40.1441 61.0236 38.2502C61.0236 36.3563 59.4874 34.821 57.5924 34.821C55.6973 34.821 54.1611 36.3563 54.1611 38.2502C54.1611 40.1441 55.6973 41.6794 57.5924 41.6794Z" fill="#5C5C5C"/>
<path d="M36.6365 107.814C40.1558 107.814 43.0087 104.962 43.0087 101.445C43.0087 97.9279 40.1558 95.0767 36.6365 95.0767C33.1171 95.0767 30.2642 97.9279 30.2642 101.445C30.2642 104.962 33.1171 107.814 36.6365 107.814Z" fill="#5C5C5C"/>
<mask id="mask0_3869_1833" style="mask-type:alpha" maskUnits="userSpaceOnUse" x="54" y="8" width="125" height="137">
<path d="M170.241 8H64.7776V48.2513C58.2677 58.0853 54.4766 69.8847 54.4766 82.5848C54.4766 116.999 82.3141 144.8 116.651 144.8C150.988 144.8 178.826 116.999 178.826 82.5848C178.826 71.0652 175.693 60.2867 170.241 51.0437V8Z" fill="#D9D9D9"/>
</mask>
<g mask="url(#mask0_3869_1833)">
<path d="M69.0915 147.616L67.9878 18.2759C67.9878 15.2425 70.4711 12.8986 73.5063 12.8986L160.147 12.8986C163.183 12.8986 165.666 15.3804 165.666 18.2759L165.666 142.239C165.666 145.272 163.183 147.616 160.147 147.616L97.374 147.616L69.0915 147.616Z" fill="url(#paint0_linear_3869_1833)"/>
</g>
<ellipse cx="116.551" cy="82.3245" rx="38.8291" ry="46.3181" fill="#3A3A3A"/>
<path d="M101.451 64.9413L131.652 95.6044L117.147 110.331V53.241L131.652 67.9673L101.451 98.6304" stroke="#F5F2EC" stroke-width="3.6" stroke-linecap="round" stroke-linejoin="round"/>
<path d="M153.134 85.6653L130.738 121.317C128.034 125.622 131.132 131.215 136.22 131.215H181.012C186.1 131.215 189.198 125.622 186.494 121.317L164.098 85.6653C161.562 81.6275 155.671 81.6275 153.134 85.6653Z" fill="url(#paint1_linear_3869_1833)"/>
<path d="M158.274 98.4819C156.703 98.4819 155.454 99.802 155.542 101.371L156.221 113.493C156.282 114.582 157.183 115.433 158.274 115.433C159.364 115.433 160.265 114.582 160.326 113.493L161.005 101.371C161.093 99.802 159.844 98.4819 158.274 98.4819ZM158.265 123.523C159.733 123.523 160.88 122.337 160.88 120.851C160.88 119.365 159.733 118.198 158.265 118.198C156.814 118.198 155.668 119.365 155.668 120.851C155.668 122.337 156.814 123.523 158.265 123.523Z" fill="#242424"/>
<defs>
<linearGradient id="paint0_linear_3869_1833" x1="116.859" y1="150.733" x2="116.859" y2="11.4462" gradientUnits="userSpaceOnUse">
<stop stop-color="#5C5C5C"/>
<stop offset="0.9964" stop-color="#4D4D4D"/>
</linearGradient>
<linearGradient id="paint1_linear_3869_1833" x1="136.505" y1="143.184" x2="180.669" y2="98.9624" gradientUnits="userSpaceOnUse">
<stop stop-color="#FAFAFA"/>
<stop offset="0.828125" stop-color="#F5F2EC"/>
</linearGradient>
</defs>
</svg>
